svgs/sharp-solid/taxi.svg

<svg xmlns="http://www.w3.org/2000/svg" viewBox="0 0 512 512"><!--! Font Awesome Pro 6.6.0 by @fontawesome - https://fontawesome.com License - https://fontawesome.com/license (Commercial License) Copyright 2024 Fonticons, Inc. --><path d="M352 0L160 0l0 64-40 0L97.3 64 89.8 85.4 41.3 224 0 224 0 432l0 80 96 0 0-80 320 0 0 80 96 0 0-80 0-208-41.3 0L422.2 85.4 414.7 64 392 64l-40 0 0-64zm17.3 128l33.6 96-293.8 0 33.6-96 226.6 0zM96 288a32 32 0 1 1 0 64 32 32 0 1 1 0-64zm288 32a32 32 0 1 1 64 0 32 32 0 1 1 -64 0z"/></svg>

<svg xmlns="http://www.w3.org/2000/svg" viewBox="0 0 512 512"><!--! Font Awesome Pro 6.5.2 by @fontawesome - https://fontawesome.com License - https://fontawesome.com/license (Commercial License) Copyright 2024 Fonticons, Inc. --><path d="M352 0H160V64H120 97.3L89.8 85.4 41.3 224H0V432v80H96V432H416v80h96V432 224H470.7L422.2 85.4 414.7 64H392 352V0zm17.3 128l33.6 96H109.1l33.6-96H369.3zM96 288a32 32 0 1 1 0 64 32 32 0 1 1 0-64zm288 32a32 32 0 1 1 64 0 32 32 0 1 1 -64 0z"/></svg>
